r1l2.o1bb8a1&a8aa8b1&b8bb8a1&a8al8ab4bf+a>dc+<abb1&b1a2.ab4gab4g>dc+<b2.ba1&aa2.af+f+1bbbbbbbbbbbbbbbbaaaaaaaa4>dc+<a>dc+<a4bbbbbbbbbbbbbbbbaaaa4aaa4a>dc+dc+4<al4gg.ga2.aa8gg.gf+2.el8f+gggg4gggaaaa4aaab1&b2b.a.ggggg4ggggggg4gggf+f+f+f+4f+f+f+f+f+f+f+4f+f+f+gggg4ggggggg4gggf+f+f+f+4f+f+f+4f+af+>dc+<af+gggg4ggggggg4gggf+f+f+f+4f+f+f+f+f+f+f+4f+f+f+gggg4ggggggg4gggf+f+f+f+4f+f+f+4f+af+>dc+<af+gggg4ggggggg4gggf+f+f+f+4f+f+f+f+f+f+f+4f+f+f+gggg4ggggggg4gggf+f+f+f+4f+f+f+4.f+a4f+a4b4